X:1
T:Title
%%score { 1 | 2 }
L:1/8
Q:1/4=100
M:4/4
K:D
V:1 treble nm="Grand Piano"
V:2 bass 
V:1
 [FA]2 [GB][FA] [A,DF]2 [G,CE]2 | [F,D]6 [F,=CD]2 | [G,B,D]2 [B,DG][DGB] [B,Gd]2 [B,Gc][DGB] | %3
w: Chas.~H.~Gabriel * * * *|||
[M:3/4] [DFA]6 |[M:1/4] [DFA]2 |[M:4/4] [CEA]2 [A,CE][A,CE] [A,CE]2 [A,EA]2 | %6
w: |||
 [A,DF]2 [A,DF][A,EG] [DFA]2 B2 | A2 dd F2 [CE]2 |[M:3/4] D6 |] %9
w: |||
V:2
 [D,D]2 [D,D][D,D] D,2 A,,2 | D,6 D,2 | G,,2 G,,G,, G,,2 G,,G,, |[M:3/4] D,6 |[M:1/4] D,2 | %5
[M:4/4] A,,2 A,,A,, A,,2 C,2 | D,2 D,D, D,2 [G,DG]2 | [F,D]2 [G,B,D][G,B,D] [A,D]2 [A,,G,]2 | %8
[M:3/4] [D,F,]6 |] %9

